!!!OTL: Rumpel nit!
!!!ARE: Europa, Mitteleuropa, Deutschland
!!!SCT: A0303A
!!!YEM: Copyright 1995, estate of Helmut Schaffrath.
**kern
*ICvox
*Ivox
*M6/2
*k[f#]
*G:
{1g
2g
1g
2g
=1
1dd
2dd
1.dd}
=2
{1dd
2dd
1cc
2dd
=3
1b-
2a
1.g}
=4
{1b-
2b-
1cc
2a
=5
1fn
2g
1.a}
=6
{1g
2g
1g
2g
=7
1fn
2e
1d}
{2d
=8
1fn
2g
1a
2g
=9
1fn
2g
1a}
{2dd
=10
1b-
2a
1g
2f#
=11
0.g}
==
!!!AGN: Romanze, Ballade, Lied
!! 68 Lieder Nuernberg bei Berg und Newber 1542 No. 35
!!!ONB: ESAC (Essen Associative Code) Database: ALTDEU
!!!AMT: compound duple
!!!AIN: vox
!!!EED: Helmut Schaffrath
!!!EEV: 1.0
*-
